X:35
T:Lincolnshire Rangers. JC.034
R:March/Quickstep
S:John Clare,Poet,Helpston. (1793-1864)
N:Song text exists. See Deacon.
N:Sounds like Begone Dull Care.
O:England
A:Northamptonshire
Z:vmp.P. Headford
M:6/8
L:1/8
Q:3/8=120
K:G
” Crot in MS”\
D|GDG BGB|d3 c3|BdB AGA|G3 G2:|!
|:” Crot in MS”d|dBd dBd|e3 c3|Bcd {e}dcB|B3 A2D|!
GDG BGB|d3 c3|BdB AGA|G3- G2:|

